common/src/main/resources/glyphs/expui/nodes/testIgnored.svg

<svg xmlns="http://www.w3.org/2000/svg" width="16" height="16" data-big="true" viewBox="0 0 24 24"><path fill="gray" d="M7 2v2h1v14a4 4 0 0 0 4 4 4 4 0 0 0 4-4V4h1V2zm4 14c-.6 0-1-.4-1-1s.4-1 1-1 1 .4 1 1-.4 1-1 1m2-4c-.6 0-1-.4-1-1s.4-1 1-1 1 .4 1 1-.4 1-1 1m1-5h-4V4h4z"/></svg>

<!--
  - The MIT License (MIT)
  -
  - Copyright (c) 2015-2024 Elior "Mallowigi" Boukhobza
  -
  - Permission is hereby granted, free of charge, to any person obtaining a copy
  - of this software and associated documentation files (the "Software"), to deal
  - in the Software without restriction, including without limitation the rights
  - to use, copy, modify, merge, publish, distribute, sublicense, and/or sell
  - copies of the Software, and to permit persons to whom the Software is
  - furnished to do so, subject to the following conditions:
  -
  - The above copyright notice and this permission notice shall be included in all
  - copies or substantial portions of the Software.
  -
  - THE SOFTWARE IS PROVIDED "AS IS", WITHOUT WARRANTY OF ANY KIND, EXPRESS OR
  - IMPLIED, INCLUDING BUT NOT LIMITED TO THE WARRANTIES OF MERCHANTABILITY,
  - FITNESS FOR A PARTICULAR PURPOSE AND NONINFRINGEMENT. IN NO EVENT SHALL THE
  - AUTHORS OR COPYRIGHT HOLDERS BE LIABLE FOR ANY CLAIM, DAMAGES OR OTHER
  - LIABILITY, WHETHER IN AN ACTION OF CONTRACT, TORT OR OTHERWISE, ARISING FROM,
  - OUT OF OR IN CONNECTION WITH THE SOFTWARE OR THE USE OR OTHER DEALINGS IN THE
  - SOFTWARE.
  -->


<svg data-big="true" xmlns="http://www.w3.org/2000/svg" version="1.1" width="16px" height="16px" viewBox="0 0 24 24">
  <path fill="#808080"
        d="M7,2V4H8V18A4,4 0 0,0 12,22A4,4 0 0,0 16,18V4H17V2H7M11,16C10.4,16 10,15.6 10,15C10,14.4 10.4,14 11,14C11.6,14 12,14.4 12,15C12,15.6 11.6,16 11,16M13,12C12.4,12 12,11.6 12,11C12,10.4 12.4,10 13,10C13.6,10 14,10.4 14,11C14,11.6 13.6,12 13,12M14,7H10V4H14V7Z"/>
</svg>
